images/src/trash.svg

<svg height="16" viewBox="0 0 14 16" width="14" xmlns="http://www.w3.org/2000/svg"><path d="m13.9 2.9c-.1-.4-.2-.6-.2-.6-.1-.4-.4-.4-.8-.5l-2.3-.3c-.3 0-.3 0-.4-.3-.4-.7-.5-1.2-.9-1.2h-4.6c-.4 0-.5.5-.9 1.3-.1.2-.1.2-.4.3l-2.3.3c-.4 0-.7.1-.8.4 0 0-.1.2-.2.5-.1.6-.2.5.3.5h13.2c.5 0 .4.1.3-.4zm-1.5 1.8h-10.8c-.7 0-.8.1-.7.6l.8 10.1c.1.5.1.6.8.6h9.1c.6 0 .7-.1.8-.6l.8-10.1c0-.5-.1-.6-.8-.6z"/></svg>

<svg
  xmlns="http://www.w3.org/2000/svg"
  fill="#000"
  width="14"
  height="16"
  viewBox="0 0 14 16">
  <path
    d="M13.9,2.9c-0.1-0.4-0.2-0.6-0.2-0.6c-0.1-0.4-0.4-0.4-0.8-0.5l-2.3-0.3c-0.3,0-0.3,0-0.4-0.3 C9.8,0.5,9.7,0,9.3,0H4.7C4.3,0,4.2,0.5,3.8,1.3C3.7,1.5,3.7,1.5,3.4,1.6L1.1,1.9C0.7,1.9,0.4,2,0.3,2.3c0,0-0.1,0.2-0.2,0.5 C0,3.4-0.1,3.3,0.4,3.3h13.2C14.1,3.3,14,3.4,13.9,2.9z M12.4,4.7H1.6c-0.7,0-0.8,0.1-0.7,0.6l0.8,10.1C1.8,15.9,1.8,16,2.5,16h9.1 c0.6,0,0.7-0.1,0.8-0.6l0.8-10.1C13.2,4.8,13.1,4.7,12.4,4.7z" />
</svg>
